2f9
albertroad.htmlalbertroad.htmlalbertroad.htmlalbertroad.htmlalbertroad.htmlalbertroad.htmlalbertroad.htmlalbertroad.htmlalbertroad.htmlFrom <U></U><I>Frankie Gavin &amp; Alec Finn</I>
albertroad.htmlalbertroad.html

T:Martin Wynne's
M:4/4
L:1/8
R:reel
D:Frankie Gavin and Alec Finn
Z:Devin McCabe
K:D
A~F3 G~E3|F2AF EFDB,|A,B,DE FEFB|ABde fedB|
!A~F3 G~E3|F2AF EFDB,|A,B,DE FEFB|1ABde fedB:|2ABde fddf|
!:~a3f gfeg|fedf e~B3|dBAF DEFA|dfaf geeg|
!faaf gfeg|fedf e~B3|dBAF DEFB|1ABde fddf:|2ABde fedB||

%  ABC2Win Version 2.1 11/12/2000



albertroad.htmlalbertroad.htmlalbertroad.htmlalbertroad.htmlalbertroad.htmlalbertroad.html
0

